X:28
T:Göndör a hajam, legénynek születtem
M:4/4
L:1/4
K:F
A/c/B/A/ G/A/ F | G A F E | D2 D z |
dddc | FA c<B | A2 A z |
dddc | F/F/A/A/ c<B | A2 G z |
A A/A/ G/A/F/F/ | GAFE | D2 D z |

